!!!OTL: 557a. Liebesachmerz.
!!!ARE: Europa, Mitteleuropa, Deutschland
!!!SCT: E0557
!!!TXL: @@DE
!!!YEM: Copyright 1995, estate of Helmut Schaffrath.
**kern	**text
*ICvox	*
*M2/4	*
*k[b-]	*
*F:	*
!LO:TX:a:t=Mäßig langsam.	!
!LO:TX:a:t=Erk, Liederh. Nr. 158.	!
{8c	Den
=1	=1
4f	Sonn-
8f	-tag,
8g	den
=2	=2
4a	Mon-
8a}	-tag
{8a	in
=3	=3
4g	al-
4g	-ler
=4	=4
4f	Fruh,
8r}	.
{8g	da
=5	=5
8a	kam
8g	mir
8a	ei-
8b-	-ne
=6	=6
4cc	trau-
8cc}	-ri-
{8cc	-ge
=7	=7
4b-	Bot-
4b-	-ſchaft
=8	=8
4a	ʒu,
8r}	.
{8cc	die-
=9	=9
8cc	-weil
8cc	ich
8ff	von
8cc	meim
=10	=10
(8ccqq	.
4b-)	Schätʒchen
8dd}	.
{8b-	hab
=11	=11
4a	Ab-
8cc	-ſchied
8a	ge-
=12	=12
4g	-nomm'n,
8r}	.
{8c	ich
=13	=13
8f	ſoll-
8g	-te
8a	doch
8b-	noch
=14	=14
8ccL	ein-
8ffJ	.
8ddL}	-mal
{8b-J	.
=15	=15
4a	ʒu
4g	ihr
=16	=16
4f	komm'n.
8r}	.
==	==
!!!AGN: Liebes - Lied, Abschied, Trennung
!!!ONB: ESAC (Essen Associative Code) Database: ERK1
!!!AMT: simple duple
!!!AIN: vox
!!!EED: Helmut Schaffrath
!!!EEV: 1.0
!!!GTL: Liebeslieder [Neuere (aus dem 18. bis 19. Jahrh.) - Liebeslust]
!!!URL-scan: https://rosdok.uni-rostock.de/mcrviewer/recordIdentifier/rosdok_ppn745177662/iview2/phys_0385.iview2?x=-128.77276441889308&y=1657.5547885661945&scale=0.5870222003877485&rotation=0&layout=singlePageLayout
!!!ENC: Anna Maria Matuszewska
!!!EEV: 2024/10/12
*-	*-
